!!!!SEGMENT: pl-kk--kk-i-6--031_lilius-franciszek--gloria-patri.krn
!!!cenid: 16xx:1006
!!!COM: Lilius, Franciszek
!!!COM-rismID: pe30020509
!!!CDT: ~1600-1657
!!!CNT: Polish
!!!OTL: Gloria patri
!!!PDT:
!!!AGN: Sacred
!!!SMS-siglum: PL-Kk
!!!SMS-shelfmark: Kk.I.6
!!!SMS-shelfwork: 031 W
!!!SMS-variant:
!!!SMS-altvar:
!!!NIFC-rismSourceID: 1001136178
!!!NIFC-islandoraID: pl-kk:1634
!!!URL-pdf-islandora: https://repozytorium.nifc.pl/islandora/object/pl-kk%3A1634/datastream/PDF/view
!!!URL-scan: https://polish.musicsources.pl/pl/lokalizacje/galeria/rekopisy/6133 @EN{Scan on Polish Music Herritage in Open Access Website} @PL{Skany w portalu Dziedzictwo Muzyki Polskiej w otwartym dostępie}
!!!ONB-nifc: UWAGA: C (skan 0043, s. 83), T (skan 0149, s. 102-103), B (skan 0259, s. 101) Następny utwór: Qualis est dilecta nostra
!!!AIN: 1 empty 1 tenor 1 vox
!!!key:
**kern	**text	**kern	**text	**kern	**text
*part3	*part3	*part2	*part2	*part1	*part1
*staff3	*staff3	*staff2	*staff2	*staff1	*staff1
*Iempty	*	*Itenor	*	*Ivox	*
*I"Baſsus.	*	*I"Tenor.	*	*I"Cantus.	*
*I'B	*	*I'T	*	*I'S	*
*clefF4	*	*clefC4	*	*clefC4	*
*k[]	*	*k[]	*	*k[]	*
*g:	*	*g:	*	*g:	*
*M2/1	*	*M2/1	*	*M2/1	*
*met(C)	*	*met(C|)	*	*met(C)	*
=1-	=1-	=1-	=1-	=1-	=1-
*lig	*	*	*	*lig	*
1D	Glo-	2.A/	Glo-	1F	Glo-
!	!	!LO:TX:a:t=P:problem=all\middle&colon; global	!	!	!
.	.	4B\	.	.	.
1C	.	1.c	.	1G	.
*Xlig	*	*	*	*	*
=2-	=2-	=2-	=2-	=2-	=2-
1.FF	.	.	.	1A	.
.	.	2c\	-ri-	.	.
*	*	*	*	*Xlig	*
.	.	2c\	-a	1A	-ri-
2FF/	-ri-	2.d\	Pa-	.	.
=3-	=3-	=3-	=3-	=3-	=3-
1AA	-a	.	.	1A,<	-a
.	.	8c\L	.	.	.
!	!	!LO:TX:b:t=P:problem=# below	!	!	!
.	.	8B#X\J	.	.	.
.	.	2c\	.	.	.
1D	Pa-	2d\	-tri	1A	Pa-
.	.	2d\	et	.	.
=4-	=4-	=4-	=4-	=4-	=4-
2AA,</	-tri	2.c\	fi-	1A,<	-tri
2AA/	et	.	.	.	.
.	.	4B\ny	.	.	.
!LO:TX:a:t=P:problem=all\middle&colon; global	!	!	!	!	!
4D\	fi-	2A/	.	1A,<	et
4E\	.	.	.	.	.
4F\	.	1d\	.	.	.
4G\	.	.	.	.	.
=5-	=5-	=5-	=5-	=5-	=5-
2.A\	.	.	.	1A	fi-
!	!	!LO:TX:b:t=P:problem=# below	!	!	!
.	.	2c#X\	-li-	.	.
4A\	-li-	.	.	.	.
2D,</	-o	2d,<\	-o	1A	-li-
*	*	*custos:E	*	*	*
2D/	et	2F/	et	.	.
!	!	!LO:LB:g=original	!	!	!
=6-	=6-	=6-	=6-	=6-	=6-
2C/	Spi-	2E/	Spi-	1A,<	-o
2.F\	-ri-	2.A/	-ri-	.	.
*	*	*	*	*lig	*
!	!	!	!	!LO:LB:g=original	!
.	.	.	.	1A	et
!	!	!LO:TX:a:t=P:problem=4/middle&colon; global	!	!	!
4E\	-tu-	4G/	-tu-	.	.
*custos:c	*	*	*	*	*
2D/	-i	2F/	-i	.	.
!LO:LB:g=original	!	!	!	!	!
=7-	=7-	=7-	=7-	=7-	=7-
1C	San-	1G	San-	1c	.
*	*	*	*	*Xlig	*
2FF/	-cto	4F,</	-cto	1A	Spi-
.	.	2c\ny	et	.	.
2F\	et	.	.	.	.
.	.	4G/	Spi-	.	.
=8-	=8-	=8-	=8-	=8-	=8-
2D\	Spi-	2.d\	-ri-	1A	-ri-
2.F\	-ri-	.	.	.	.
.	.	4d\	-tu-	.	.
.	.	2c\	-i	1A	-tu-
4E\	-tu-	.	.	.	.
2D/	-i	2d\	San-	.	.
=9-	=9-	=9-	=9-	=9-	=9-
*	*	*	*	*lig	*
2.AA/	San-	0.c	-cto	1A	-i
!LO:TX:a:t=P:problem=4/middle or right&colon; global	!	!	!	!	!
4BB-X/	.	.	.	.	.
0C	.	.	.	1G	.
*	*	*	*	*Xlig	*
=10-	=10-	=10-	=10-	=10-	=10-
.	.	.	.	1G	San-
1FF	-cto	1c	.	1A	-cto
=11-	=11-	=11-	=11-	=11-	=11-
*	*	*	*	*lig	*
2.C/	Si-	00r	.	1G	Si-
4C/	-cut	.	.	.	.
2D/	e-	.	.	1F	.
2D/	-rat	.	.	.	.
*	*	*	*	*Xlig	*
=12-	=12-	=12-	=12-	=12-	=12-
*	*	*	*	*lig	*
2E\	in	.	.	1G	-cut
2E\	prin-	.	.	.	.
2.F\	-ci-	.	.	1A	.
*custos:D	*	*	*	*	*
4E\	.	.	.	.	.
*	*	*	*	*Xlig	*
!LO:LB:g=original	!	!	!	!	!
=13-	=13-	=13-	=13-	=13-	=13-
*lig	*	*	*	*	*
1D	.	1r	.	1A	e-
*col	*	*	*	*	*
2.AA/	.	2.c\	Si-	1A,<	-rat
*Xcol	*	*	*	*	*
*Xlig	*	*	*	*	*
*	*	*custos:d	*	*	*
4AA/	-pi-	4c\	-cut	.	.
!	!	!LO:LB:g=original	!	!	!
=14-	=14-	=14-	=14-	=14-	=14-
2D,</	-o	2d\	e-	1A,<	in
2F\	et	2d\	-rat	.	.
2.A\	Nunc	2e\	in	1A	prin-
.	.	2e\	prin-	.	.
4G\	.	.	.	.	.
=15-	=15-	=15-	=15-	=15-	=15-
4F\	.	1f	-ci-	1A	-ci-
4E\	.	.	.	.	.
1D	.	.	.	.	.
.	.	2.e\	-pi-	1A	-pi-
!LO:TX:a:t=P:problem=# below	!	!	!	!	!
2C#X/	et	.	.	.	.
.	.	4e\	.	.	.
=16-	=16-	=16-	=16-	=16-	=16-
*lig	*	*	*	*	*
1D	Sem-	2d\	-o	1A,<	-o
.	.	2A/	et	.	.
*	*	*	*	*custos:A	*
1AA	.	2.c\	nunc	1A	et
.	.	4B\	.	.	.
*Xlig	*	*	*	*	*
!	!	!	!	!LO:LB:g=original	!
=17-	=17-	=17-	=17-	=17-	=17-
*lig	*	*	*	*lig	*
1D	.	4A/	.	1A	nunc
.	.	4G/	.	.	.
.	.	2F/	.	.	.
1Cny	.	1.G	et	1c	.
*Xlig	*	*	*	*Xlig	*
=18-	=18-	=18-	=18-	=18-	=18-
4FF/	.	.	.	1A	et
4GG/	.	.	.	.	.
4AA/	.	1F	Sem-	.	.
4BB/ny	.	.	.	.	.
1C	.	.	.	1G	Sem-
*	*	*custos:F	*	*	*
.	.	2E/	.	.	.
!	!	!LO:PB:g=original	!	!	!
=19-	=19-	=19-	=19-	=19-	=19-
1FF	-per	1F	-per	1A,<	-per
*lig	*	*	*	*lig	*
1C	et	2r	.	1G	Et
.	.	1c\	et	.	.
=20-	=20-	=20-	=20-	=20-	=20-
*custos:C	*	*	*	*	*
1D	.	.	.	1F	.
.	.	2B\	in	.	.
*Xlig	*	*	*	*Xlig	*
*	*	*	*	*lig	*
!LO:LB:g=original	!	!	!	!	!
1C	in	[<1c	Sae-	1G	in
=21-	=21-	=21-	=21-	=21-	=21-
2.FF/	Sae-	2c]	.	1A	.
.	.	2c\	-cu-	.	.
4FF/	-cu-	.	.	.	.
*	*	*	*	*Xlig	*
2FF/	-la	4c\	-la	1A	Sae-
.	.	2c\	Sae-	.	.
1F\	Sae-	.	.	.	.
.	.	4c\	-cu-	.	.
=22-	=22-	=22-	=22-	=22-	=22-
.	.	4A\	-lo-	1A	-cu-
.	.	4B\	.	.	.
2F\	-cu-	4c\	.	.	.
.	.	4A\	.	.	.
4D/	.	1d	.	1A	-la
4C/	-lo	.	.	.	.
4D/	.	.	.	.	.
4E\	.	.	.	.	.
=23-	=23-	=23-	=23-	=23-	=23-
1F	rum	4c\	.	1A	Sae-
.	.	4B\	.	.	.
.	.	1A	.	.	.
1E	A-	.	.	1B	-cu-
!	!	!LO:TX:b:t=P:problem=# below	!	!	!
.	.	2G#X/	.	.	.
=24-	=24-	=24-	=24-	=24-	=24-
2AA/	-men	2.A/	.	1c	-lo-
2.FF/	A-	.	.	.	.
*	*	*custos:c	*	*	*
.	.	4B\	.	.	.
!	!	!LO:LB:g=original	!	!	!
.	.	1c	-rum	1A	-rum
4GG/	.	.	.	.	.
4AA/	.	.	.	.	.
4BB/	.	.	.	.	.
=25-	=25-	=25-	=25-	=25-	=25-
*lig	*	*	*	*lig	*
1C	.	2.c\	A-	1G	A-
.	.	4B\	.	.	.
1D	.	0A	.	1F	.
*Xlig	*	*	*	*Xlig	*
=26-	=26-	=26-	=26-	=26-	=26-
*	*	*	*	*custos:D	*
1AA	-men	.	.	1E	.
*	*ij	*	*	*	*
!	!	!LO:TX:a:t=P:problem=# above	!	!	!
!	!	!	!	!LO:LB:g=original	!
2D/	A-	1F#X	-men	00D	.
4D/	.	.	.	.	.
4C/	.	.	.	.	.
=27-	=27-	=27-	=27-	=27-	=27-
4BB-X/	.	2r	.	.	.
4AA/	.	.	.	.	.
1GG/	.	4d\	A-	.	.
.	.	4c\	.	.	.
.	.	2B-X\	.	.	.
!LO:TX:a:t=P:problem=# above	!	!	!	!	!
2FF#X/	.	4A/	.	.	.
.	.	2d\	.	.	.
=28-	=28-	=28-	=28-	=28-	=28-
0GG	.	.	.	.	.
.	.	4c\	.	.	.
.	.	4B-X\	.	.	.
.	.	4A/	.	.	.
.	.	1.Gny	.	[00D;;l	-men.
=29-	=29-	=29-	=29-	=29-	=29-
00D;;l	-men	.	.	.	.
*	*Xij	*	*	*	*
!	!	!LO:TX:b:t=P:problem=# below	!	!	!
.	.	4F#/	.	.	.
.	.	4E/	.	.	.
!	!	!LO:TX:b:t=P:problem=# below	!	!	!
.	.	0.F#l;;	-men	.	.
=30-	=30-	=30-	=30-	=30-	=30-
.	.	.	.	.	.
.	.	.	.	1D]	.
=-	=-	=-	=-	=-	=-
*-	*-	*-	*-	*-	*-
!!!system-decoration: [(s1,s2,s3)]
!!!RDF**kern: l = terminal long
!!!RDF**kern: > = above
!!!RDF**kern: < = below
!!!EED: Antoni Szymański
!!!EEV: 2021-03-22
!!!ENC: Berenika Jozajtis
!!!END: 2021-03-08
